X:281
T:B281-  Let the Soldiers Rejoice
Q:1/4=120
L:1/4
M:3/4
K:C
c/d/|e3/2 f/g|g3/2 f/e|(f3/4g/4 f3/4e/4) (d3/4e/4)|e3/2 d/c|\
cGc|(e3/4d/4 c3/4d/4 e3/4f/4|g3/2) a/ ^f|gg||d|\
d3/4e/4de|d2g3/4f/4|(e3/4f/4) (e3/4f/4) (g/e/)|f2f3/4g/4|\
a(g/f/) (e/d/)|(e/4f/4g/) (f/e/) (d/c/)|(c/4d/4e/) c3/2 B/|cc|]

